icons/cold_chain_fill.svg

<svg width="48" height="48" viewBox="0 0 48 48" fill="none" xmlns="http://www.w3.org/2000/svg">
<path fill-rule="evenodd" clip-rule="evenodd" d="M30 4C27.2386 4 25 6.39847 25 9.35714V29.7546C23.1711 31.2208 22 33.4736 22 36C22 40.4183 25.5817 44 30 44C34.4183 44 38 40.4183 38 36C38 33.4736 36.8289 31.2208 35 29.7546V9.35714C35 6.39847 32.7614 4 30 4ZM33 22.061C31.5429 22.0854 30.1778 21.7313 28.9824 21.4212C28.2524 21.2319 27.5857 21.0589 27 20.9986V9.35714C27 7.58194 28.3431 6.14286 30 6.14286C31.6568 6.14286 33 7.58194 33 9.35714V9.97595H31C30.4477 9.97595 30 10.4237 30 10.976C30 11.5282 30.4477 11.976 31 11.976H33V13.976H31C30.4477 13.976 30 14.4237 30 14.976C30 15.5282 30.4477 15.976 31 15.976H33V17.976H31C30.4477 17.976 30 18.4237 30 18.976C30 19.5282 30.4477 19.976 31 19.976H33V22.061Z" fill="black"/>
<path d="M16.3301 12C16.3301 11.4477 15.8824 11 15.3301 11C14.7779 11 14.3301 11.4477 14.3301 12V15.268L11.5 13.6341C11.0218 13.3579 10.4102 13.5218 10.134 14.0001C9.85788 14.4784 10.0218 15.09 10.5 15.3661L13.33 17L10.5 18.6339C10.0217 18.91 9.85782 19.5216 10.134 19.9999C10.4101 20.4782 11.0217 20.6421 11.5 20.3659L14.3301 18.7319V22C14.3301 22.5523 14.7779 23 15.3301 23C15.8824 23 16.3301 22.5523 16.3301 22V18.7321L19.1603 20.3661C19.6386 20.6423 20.2502 20.4784 20.5263 20.0001C20.8025 19.5218 20.6386 18.9102 20.1603 18.6341L17.3299 17L20.1602 15.3659C20.6385 15.0898 20.8024 14.4782 20.5263 13.9999C20.2501 13.5216 19.6385 13.3577 19.1602 13.6339L16.3301 15.2678V12Z" fill="black"/>
</svg>

<svg
  xmlns="http://www.w3.org/2000/svg"
  width="24"
  height="24"
  viewBox="0 0 24 24"
  fill="none"
  stroke="currentColor"
  stroke-width="2"
  stroke-linecap="round"
  stroke-linejoin="round"
>
  <path
    fill-rule="evenodd"
    d="M30 4c-2.761 0-5 2.398-5 5.357v20.398a8 8 0 1 0 10 0V9.357C35 6.398 32.761 4 30 4m3 18.061c-1.457.024-2.822-.33-4.018-.64-.73-.19-1.396-.362-1.982-.422V9.357c0-1.775 1.343-3.214 3-3.214s3 1.439 3 3.214v.619h-2a1 1 0 0 0 0 2h2v2h-2a1 1 0 1 0 0 2h2v2h-2a1 1 0 1 0 0 2h2z"
    clip-rule="evenodd"
  />
  <path d="M16.33 12a1 1 0 1 0-2 0v3.268l-2.83-1.634a1 1 0 1 0-1 1.732L13.33 17l-2.83 1.634a1 1 0 1 0 1 1.732l2.83-1.634V22a1 1 0 0 0 2 0v-3.268l2.83 1.634a1 1 0 1 0 1-1.732L17.33 17l2.83-1.634a1 1 0 1 0-1-1.732l-2.83 1.634z" />
</svg>
